icon-themes/breeze_svg/cmd/32/movepagefirst.svg

<svg viewBox="0 0 32 32" xmlns="http://www.w3.org/2000/svg"><path d="m4 8v1h24v-1zm12 3-12 11.332031c-.003.014.7070312.667969.7070312.667969l11.2929688-10.664062 11.292969 10.664062.707031-.667969z" fill="#4d4d4d"/></svg>

<svg xmlns="http://www.w3.org/2000/svg" viewBox="0 0 32 32">
 <path 
     style="fill:#4d4d4d" 
     d="M 4 8 L 4 9 L 28 9 L 28 8 L 4 8 z M 16 11 L 4 22.332031 C 3.997 22.346031 4.7070312 23 4.7070312 23 L 16 12.335938 L 27.292969 23 L 28 22.332031 L 16 11 z "
     />
</svg>
